; generated by Slic3r Prusa Edition 1.42.0-beta2+linux64 on 2019-05-08 at 15:12:56

; 

; external perimeters extrusion width = 0.25mm
; perimeters extrusion width = 0.25mm
; infill extrusion width = 0.25mm
; solid infill extrusion width = 0.25mm
; top infill extrusion width = 0.25mm
; first layer extrusion width = 0.35mm

M73 P0 R383
M73 Q0 S384
M201 X1000 Y1000 Z1000 E5000 ; sets maximum accelerations, mm/sec^2
M203 X200 Y200 Z12 E120 ; sets maximum feedrates, mm/sec
M204 P1250 R1250 T1250 ; sets acceleration (P, T) and retract acceleration (R), mm/sec^2
M205 X8.00 Y8.00 Z0.40 E1.50 ; sets the jerk limits, mm/sec
M205 S0 T0 ; sets the minimum extruding and travel feed rate, mm/sec
M107
M115 U3.6.0 ; tell printer latest fw version
M83  ; extruder relative mode
M104 S215 ; set extruder temp
M140 S60 ; set bed temp
M190 S60 ; wait for bed temp
M109 S215 ; wait for extruder temp
G28 W ; home all without mesh bed level
G80 ; mesh bed leveling
G1 Y-3.0 F1000.0 ; go outside print area
G92 E0.0
G1 X60.0 E8.0 F700.0 ; intro line
M73 Q0 S384
M73 P0 R383
G1 X100.0 E12.5 F700.0 ; intro line
G92 E0.0
M221 S95
M900 K30 ; Filament gcode
G21 ; set units to millimeters
G90 ; use absolute coordinates
M83 ; use relative distances for extrusion
;BEFORE_LAYER_CHANGE
G92 E0.0
;0.2


G1 E-0.80000 F2100.00000
G1 Z0.600 F10800.000
;AFTER_LAYER_CHANGE
;0.2
G1 X62.424 Y53.130
G1 Z0.200
G1 E0.80000 F2100.00000
M204 S500
G1 F1200
G1 X62.938 Y52.413 E0.02252
G1 X63.608 Y51.995 E0.02016
G1 X64.383 Y51.846 E0.02016
G1 X178.004 Y51.846 E2.90115
G1 X178.506 Y51.907 E0.01293
G1 X178.981 Y52.083 E0.01293
G1 X179.399 Y52.363 E0.01284
G1 X179.743 Y52.735 E0.01293
G1 X186.821 Y63.351 E0.32581
G1 X187.065 Y63.888 E0.01504
G1 X187.153 Y64.470 E0.01504
G1 X187.146 Y145.677 E2.07353
G1 X187.039 Y146.194 E0.01348
G1 X186.808 Y146.669 E0.01348
G1 X179.786 Y157.204 E0.32327
G1 X179.455 Y157.587 E0.01293
G1 X178.786 Y158.005 E0.02016
G1 X178.010 Y158.154 E0.02016
G1 X64.391 Y158.154 E2.90113
G1 X63.525 Y157.970 E0.02261
G1 X62.808 Y157.456 E0.02252
G1 X62.390 Y156.786 E0.02016
G1 X62.241 Y156.011 E0.02016
G1 X62.241 Y53.996 E2.60482
G1 X62.417 Y53.167 E0.02165
M204 S1000
G1 F8640
G1 X62.938 Y52.413 E-0.21161
G1 X63.608 Y51.995 E-0.18230
G1 X64.383 Y51.846 E-0.18230
G1 X65.179 Y51.846 E-0.18380
G1 E-0.04000 F2100.00000
G1 Z0.800 F10800.000
G1 X129.475 Y108.789
G1 Z0.200
G1 E0.80000 F2100.00000
M204 S500
G1 F1200
G1 X177.578 Y108.789 E1.22825
G1 X184.052 Y118.500 E0.29800
G1 X177.578 Y128.211 E0.29800
G1 X129.475 Y128.211 E1.22825
G1 X135.948 Y118.500 E0.29800
G1 X129.495 Y108.820 E0.29705
M204 S1000
G1 F8640
G1 X132.787 Y108.818 E-0.76000
G1 E-0.04000 F2100.00000
G1 Z0.800 F10800.000
G1 X135.579 Y118.500
G1 Z0.200
G1 E0.80000 F2100.00000
M204 S500
G1 F1200
G1 X128.901 Y108.482 E0.30743
G1 X177.742 Y108.482 E1.24710
G1 X184.421 Y118.500 E0.30743
G1 X177.742 Y128.518 E0.30743
G1 X128.901 Y128.518 E1.24710
G1 X135.559 Y118.531 E0.30647
M204 S1000
G1 X135.210 Y118.500 F10800.000
M204 S500
G1 F1200
G1 X128.327 Y108.175 E0.31685
G1 X177.906 Y108.175 E1.26595
G1 X184.790 Y118.500 E0.31685
G1 X177.906 Y128.825 E0.31685
G1 X128.327 Y128.825 E1.26595
G1 X135.190 Y118.531 E0.31589
M204 S1000
G1 X135.263 Y118.256 F10800.000
G1 F8640
G1 X133.371 Y115.787 E-0.76000
G1 E-0.04000 F2100.00000
G1 Z0.800 F10800.000
G1 X134.616 Y116.335
G1 Z0.200
G1 E0.80000 F2100.00000
M204 S500
G1 F1200
G1 X146.399 Y128.119 E0.42746
M204 S1000
G1 X145.963 Y128.119 F10800.000
M204 S500
G1 F1200
G1 X135.987 Y118.142 E0.36191
G1 X136.225 Y118.500 E0.01102
G1 X136.098 Y118.690 E0.00587
G1 X145.389 Y127.981 E0.33702
G1 X144.952 Y127.981 E0.01119
G1 X135.924 Y118.952 E0.32752
G1 X135.749 Y119.214 E0.00807
G1 X144.516 Y127.981 E0.31803
G1 X144.080 Y127.981 E0.01119
G1 X135.575 Y119.476 E0.30853
G1 X135.400 Y119.737 E0.00807
G1 X143.644 Y127.981 E0.29904
G1 X143.207 Y127.981 E0.01119
G1 X135.226 Y119.999 E0.28954
G1 X135.051 Y120.261 E0.00807
G1 X142.771 Y127.981 E0.28004
G1 X142.335 Y127.981 E0.01119
G1 X134.877 Y120.523 E0.27055
G1 X134.702 Y120.784 E0.00807
G1 X141.898 Y127.981 E0.26105
G1 X141.462 Y127.981 E0.01119
G1 X134.528 Y121.046 E0.25156
G1 X134.353 Y121.308 E0.00807
G1 X141.026 Y127.981 E0.24206
G1 X140.590 Y127.981 E0.01119
G1 X134.179 Y121.570 E0.23256
G1 X134.004 Y121.831 E0.00807
G1 X140.153 Y127.981 E0.22307
M73 Q0 S383
G1 X139.717 Y127.981 E0.01119
G1 X133.830 Y122.093 E0.21357
M73 P0 R382
G1 X133.655 Y122.355 E0.00807
G1 X139.281 Y127.981 E0.20408
G1 X138.845 Y127.981 E0.01119
G1 X133.481 Y122.617 E0.19458
G1 X133.306 Y122.879 E0.00807
G1 X138.408 Y127.981 E0.18508
G1 X137.972 Y127.981 E0.01119
G1 X133.132 Y123.140 E0.17559
G1 X132.957 Y123.402 E0.00807
G1 X137.536 Y127.981 E0.16609
G1 X137.099 Y127.981 E0.01119
G1 X132.783 Y123.664 E0.15660
G1 X132.608 Y123.926 E0.00807
G1 X136.663 Y127.981 E0.14710
G1 X136.227 Y127.981 E0.01119
G1 X132.434 Y124.187 E0.13760
G1 X132.259 Y124.449 E0.00807
G1 X135.791 Y127.981 E0.12811
G1 X135.354 Y127.981 E0.01119
G1 X132.085 Y124.711 E0.11861
G1 X131.910 Y124.973 E0.00807
G1 X134.918 Y127.981 E0.10912
G1 X134.482 Y127.981 E0.01119
G1 X131.736 Y125.234 E0.09962
G1 X131.561 Y125.496 E0.00807
G1 X134.045 Y127.981 E0.09012
G1 X133.609 Y127.981 E0.01119
G1 X131.387 Y125.758 E0.08063
G1 X131.212 Y126.020 E0.00807
G1 X133.173 Y127.981 E0.07113
G1 X132.737 Y127.981 E0.01119
G1 X131.038 Y126.281 E0.06164
G1 X130.863 Y126.543 E0.00807
G1 X132.300 Y127.981 E0.05214
G1 X131.864 Y127.981 E0.01119
G1 X130.689 Y126.805 E0.04264
G1 X130.514 Y127.067 E0.00807
G1 X131.428 Y127.981 E0.03315
G1 X130.992 Y127.981 E0.01119
G1 X130.340 Y127.329 E0.02365
G1 X130.165 Y127.590 E0.00807
G1 X130.555 Y127.981 E0.01416
G1 X130.119 Y127.981 E0.01119
G1 X129.891 Y127.752 E0.00828
M204 S1000
G1 F8640
G1 X130.119 Y127.981 E-0.07449
G1 X130.555 Y127.981 E-0.10074
G1 X130.165 Y127.590 E-0.12743
G1 X130.340 Y127.329 E-0.07264
G1 X130.992 Y127.981 E-0.21291
G1 X131.428 Y127.981 E-0.10074
G1 X131.210 Y127.763 E-0.07104
G1 E-0.04000 F2100.00000
G1 Z0.800 F10800.000
G1 X133.744 Y115.027
G1 Z0.200
G1 E0.80000 F2100.00000
M204 S500
G1 F1200
G1 X146.836 Y128.119 E0.47494
M204 S1000
G1 X147.272 Y128.119 F10800.000
M204 S500
G1 F1200
G1 X132.871 Y113.718 E0.52242
M204 S1000
G1 F8640
G1 X135.198 Y116.045 E-0.76000
G1 E-0.04000 F2100.00000
G1 Z0.800 F10800.000
G1 X131.998 Y112.409
G1 Z0.200
G1 E0.80000 F2100.00000
M204 S500
G1 F1200
G1 X147.708 Y128.119 E0.56990
M204 S1000
G1 X148.145 Y128.119 F10800.000
M204 S500
G1 F1200
G1 X131.126 Y111.100 E0.61738
M204 S1000
G1 F8640
G1 X133.453 Y113.427 E-0.76000
G1 E-0.04000 F2100.00000
G1 Z0.800 F10800.000
G1 X130.253 Y109.791
G1 Z0.200
G1 E0.80000 F2100.00000
M204 S500
G1 F1200
G1 X148.581 Y128.119 E0.66486
M204 S1000
G1 F8640
G1 X146.253 Y125.791 E-0.76000
G1 E-0.04000 F2100.00000
G1 Z0.800 F10800.000
G1 X129.780 Y108.881
G1 Z0.200
G1 E0.80000 F2100.00000
M204 S500
G1 F1200
G1 X148.879 Y127.981 E0.69286
G1 X149.315 Y127.981 E0.01119
G1 X130.354 Y109.019 E0.68784
G1 X130.790 Y109.019 E0.01119
G1 X149.751 Y127.981 E0.68784
G1 X150.188 Y127.981 E0.01119
G1 X131.227 Y109.019 E0.68784
G1 X131.663 Y109.019 E0.01119
G1 X150.624 Y127.981 E0.68784
G1 X151.060 Y127.981 E0.01119
G1 X132.099 Y109.019 E0.68784
G1 X132.535 Y109.019 E0.01119
G1 X151.497 Y127.981 E0.68784
G1 X151.933 Y127.981 E0.01119
G1 X132.972 Y109.019 E0.68784
G1 X133.408 Y109.019 E0.01119
G1 X152.369 Y127.981 E0.68784
G1 X152.805 Y127.981 E0.01119
G1 X133.844 Y109.019 E0.68784
G1 X134.281 Y109.019 E0.01119
G1 X153.242 Y127.981 E0.68784
G1 X153.678 Y127.981 E0.01119
G1 X134.717 Y109.019 E0.68784
G1 X135.153 Y109.019 E0.01119
G1 X154.114 Y127.981 E0.68784
G1 X154.550 Y127.981 E0.01119
G1 X135.589 Y109.019 E0.68784
G1 X136.026 Y109.019 E0.01119
G1 X154.987 Y127.981 E0.68784
G1 X155.423 Y127.981 E0.01119
G1 X136.462 Y109.019 E0.68784
G1 X136.898 Y109.019 E0.01119
G1 X155.859 Y127.981 E0.68784
G1 X156.296 Y127.981 E0.01119
G1 X137.334 Y109.019 E0.68784
G1 X137.771 Y109.019 E0.01119
G1 X156.732 Y127.981 E0.68784
G1 X157.168 Y127.981 E0.01119
G1 X138.207 Y109.019 E0.68784
G1 X138.643 Y109.019 E0.01119
G1 X157.604 Y127.981 E0.68784
G1 X158.041 Y127.981 E0.01119
G1 X139.080 Y109.019 E0.68784
G1 X139.516 Y109.019 E0.01119
G1 X158.477 Y127.981 E0.68784
G1 X158.913 Y127.981 E0.01119
G1 X139.952 Y109.019 E0.68784
G1 X140.388 Y109.019 E0.01119
G1 X159.350 Y127.981 E0.68784
G1 X159.786 Y127.981 E0.01119
G1 X140.825 Y109.019 E0.68784
G1 X141.261 Y109.019 E0.01119
G1 X160.222 Y127.981 E0.68784
G1 X160.658 Y127.981 E0.01119
G1 X141.697 Y109.019 E0.68784
G1 X142.134 Y109.019 E0.01119
G1 X161.095 Y127.981 E0.68784
G1 X161.531 Y127.981 E0.01119
G1 X142.570 Y109.019 E0.68784
G1 X143.006 Y109.019 E0.01119
G1 X161.967 Y127.981 E0.68784
G1 X162.403 Y127.981 E0.01119
G1 X143.442 Y109.019 E0.68784
G1 X143.879 Y109.019 E0.01119
G1 X162.840 Y127.981 E0.68784
G1 X163.276 Y127.981 E0.01119
G1 X144.315 Y109.019 E0.68784
M73 Q0 S382
M73 P0 R381
G1 X144.751 Y109.019 E0.01119
G1 X163.712 Y127.981 E0.68784
G1 X164.149 Y127.981 E0.01119
G1 X145.187 Y109.019 E0.68784
G1 X145.624 Y109.019 E0.01119
G1 X164.585 Y127.981 E0.68784
G1 X165.021 Y127.981 E0.01119
G1 X146.060 Y109.019 E0.68784
G1 X146.496 Y109.019 E0.01119
G1 X165.457 Y127.981 E0.68784
G1 X165.894 Y127.981 E0.01119
G1 X146.933 Y109.019 E0.68784
G1 X147.369 Y109.019 E0.01119
G1 X166.330 Y127.981 E0.68784
G1 X166.766 Y127.981 E0.01119
G1 X147.805 Y109.019 E0.68784
G1 X148.241 Y109.019 E0.01119
G1 X167.203 Y127.981 E0.68784
G1 X167.639 Y127.981 E0.01119
G1 X148.678 Y109.019 E0.68784
G1 X149.114 Y109.019 E0.01119
G1 X168.075 Y127.981 E0.68784
G1 X168.511 Y127.981 E0.01119
G1 X149.550 Y109.019 E0.68784
G1 X149.987 Y109.019 E0.01119
G1 X168.948 Y127.981 E0.68784
G1 X169.384 Y127.981 E0.01119
G1 X150.423 Y109.019 E0.68784
G1 X150.859 Y109.019 E0.01119
G1 X169.820 Y127.981 E0.68784
G1 X170.256 Y127.981 E0.01119
G1 X151.295 Y109.019 E0.68784
G1 X151.732 Y109.019 E0.01119
G1 X170.693 Y127.981 E0.68784
G1 X171.129 Y127.981 E0.01119
G1 X152.168 Y109.019 E0.68784
G1 X152.604 Y109.019 E0.01119
G1 X171.565 Y127.981 E0.68784
G1 X172.002 Y127.981 E0.01119
G1 X153.040 Y109.019 E0.68784
G1 X153.477 Y109.019 E0.01119
G1 X172.438 Y127.981 E0.68784
G1 X172.874 Y127.981 E0.01119
G1 X153.913 Y109.019 E0.68784
G1 X154.349 Y109.019 E0.01119
G1 X173.310 Y127.981 E0.68784
G1 X173.747 Y127.981 E0.01119
G1 X154.786 Y109.019 E0.68784
G1 X155.222 Y109.019 E0.01119
G1 X174.183 Y127.981 E0.68784
G1 X174.619 Y127.981 E0.01119
G1 X155.658 Y109.019 E0.68784
G1 X156.094 Y109.019 E0.01119
G1 X175.055 Y127.981 E0.68784
G1 X175.492 Y127.981 E0.01119
G1 X156.531 Y109.019 E0.68784
G1 X156.967 Y109.019 E0.01119
G1 X175.928 Y127.981 E0.68784
G1 X176.364 Y127.981 E0.01119
G1 X157.403 Y109.019 E0.68784
G1 X157.839 Y109.019 E0.01119
G1 X176.801 Y127.981 E0.68784
G1 X177.237 Y127.981 E0.01119
G1 X158.276 Y109.019 E0.68784
G1 X158.712 Y109.019 E0.01119
G1 X177.542 Y127.849 E0.68308
G1 X177.716 Y127.588 E0.00807
G1 X159.148 Y109.019 E0.67359
G1 X159.585 Y109.019 E0.01119
G1 X177.891 Y127.326 E0.66409
G1 X178.065 Y127.064 E0.00807
G1 X160.021 Y109.019 E0.65459
G1 X160.457 Y109.019 E0.01119
G1 X178.240 Y126.802 E0.64510
G1 X178.414 Y126.540 E0.00807
G1 X160.893 Y109.019 E0.63560
G1 X161.330 Y109.019 E0.01119
G1 X178.589 Y126.279 E0.62611
G1 X178.763 Y126.017 E0.00807
G1 X161.766 Y109.019 E0.61661
G1 X162.202 Y109.019 E0.01119
G1 X178.938 Y125.755 E0.60711
G1 X179.112 Y125.493 E0.00807
G1 X162.639 Y109.019 E0.59762
G1 X163.075 Y109.019 E0.01119
G1 X179.287 Y125.232 E0.58812
G1 X179.462 Y124.970 E0.00807
G1 X163.511 Y109.019 E0.57863
G1 X163.947 Y109.019 E0.01119
G1 X179.636 Y124.708 E0.56913
M73 Q0 S381
M73 P0 R380
G1 X179.811 Y124.446 E0.00807
G1 X164.384 Y109.019 E0.55963
G1 X164.820 Y109.019 E0.01119
G1 X179.985 Y124.185 E0.55014
G1 X180.160 Y123.923 E0.00807
G1 X165.256 Y109.019 E0.54064
G1 X165.692 Y109.019 E0.01119
G1 X180.334 Y123.661 E0.53115
G1 X180.509 Y123.399 E0.00807
G1 X166.129 Y109.019 E0.52165
G1 X166.565 Y109.019 E0.01119
G1 X180.683 Y123.138 E0.51216
G1 X180.858 Y122.876 E0.00807
G1 X167.001 Y109.019 E0.50266
G1 X167.438 Y109.019 E0.01119
G1 X181.032 Y122.614 E0.49316
G1 X181.207 Y122.352 E0.00807
G1 X167.874 Y109.019 E0.48367
G1 X168.310 Y109.019 E0.01119
G1 X181.381 Y122.090 E0.47417
G1 X181.556 Y121.829 E0.00807
G1 X168.746 Y109.019 E0.46468
G1 X169.183 Y109.019 E0.01119
G1 X181.730 Y121.567 E0.45518
G1 X181.905 Y121.305 E0.00807
G1 X169.619 Y109.019 E0.44568
G1 X170.055 Y109.019 E0.01119
G1 X182.079 Y121.043 E0.43619
G1 X182.254 Y120.782 E0.00807
G1 X170.491 Y109.019 E0.42669
G1 X170.928 Y109.019 E0.01119
G1 X182.428 Y120.520 E0.41720
G1 X182.603 Y120.258 E0.00807
G1 X171.364 Y109.019 E0.40770
G1 X171.800 Y109.019 E0.01119
G1 X182.777 Y119.996 E0.39820
G1 X182.952 Y119.735 E0.00807
G1 X172.237 Y109.019 E0.38871
G1 X172.673 Y109.019 E0.01119
G1 X183.126 Y119.473 E0.37921
G1 X183.301 Y119.211 E0.00807
G1 X173.109 Y109.019 E0.36972
G1 X173.545 Y109.019 E0.01119
G1 X183.475 Y118.949 E0.36022
G1 X183.650 Y118.688 E0.00807
G1 X173.982 Y109.019 E0.35072
G1 X174.418 Y109.019 E0.01119
G1 X183.924 Y118.525 E0.34484
M204 S1000
G1 F8640
G1 X181.597 Y116.198 E-0.76000
G1 E-0.04000 F2100.00000
G1 Z0.800 F10800.000
G1 X183.153 Y117.318
G1 Z0.200
G1 E0.80000 F2100.00000
M204 S500
G1 F1200
G1 X174.854 Y109.019 E0.30105
G1 X175.291 Y109.019 E0.01119
G1 X182.280 Y116.009 E0.25357
M204 S1000
G1 F8640
G1 X179.953 Y113.682 E-0.76000
G1 E-0.04000 F2100.00000
G1 Z0.800 F10800.000
G1 X181.408 Y114.700
G1 Z0.200
G1 E0.80000 F2100.00000
M204 S500
G1 F1200
G1 X175.727 Y109.019 E0.20609
G1 X176.163 Y109.019 E0.01119
G1 X180.535 Y113.392 E0.15861
M204 S1000
G1 F8640
G1 X178.208 Y111.064 E-0.76000
G1 E-0.04000 F2100.00000
G1 Z0.800 F10800.000
G1 X179.663 Y112.083
G1 Z0.200
G1 E0.80000 F2100.00000
M204 S500
G1 F1200
G1 X176.599 Y109.019 E0.11113
G1 X177.036 Y109.019 E0.01119
G1 X178.790 Y110.774 E0.06365
M204 S1000
G1 F8640
G1 X177.036 Y109.019 E-0.57294
G1 X176.599 Y109.019 E-0.10074
G1 X176.864 Y109.284 E-0.08632
G1 E-0.04000 F2100.00000
G1 Z0.800 F10800.000
G1 X177.578 Y135.789
G1 Z0.200
G1 E0.80000 F2100.00000
M204 S500
G1 F1200
G1 X184.052 Y145.500 E0.29800
G1 X177.578 Y155.211 E0.29800
G1 X129.475 Y155.211 E1.22825
G1 X135.948 Y145.500 E0.29800
G1 X129.475 Y135.789 E0.29800
G1 X177.540 Y135.789 E1.22730
M204 S1000
G1 F8640
G1 X179.373 Y138.523 E-0.76000
G1 E-0.04000 F2100.00000
G1 Z0.800 F10800.000
G1 X135.579 Y145.500
G1 Z0.200
G1 E0.80000 F2100.00000
M204 S500
G1 F1200
G1 X128.901 Y135.482 E0.30743
G1 X177.742 Y135.482 E1.24710
G1 X184.421 Y145.500 E0.30743
G1 X177.742 Y155.518 E0.30743
G1 X128.901 Y155.518 E1.24710
G1 X135.559 Y145.531 E0.30647
M204 S1000
G1 X135.210 Y145.500 F10800.000
M204 S500
G1 F1200
G1 X128.327 Y135.175 E0.31685
G1 X177.906 Y135.175 E1.26595
G1 X184.790 Y145.500 E0.31685
G1 X177.906 Y155.825 E0.31685
G1 X128.327 Y155.825 E1.26595
G1 X135.190 Y145.531 E0.31589
M204 S1000
G1 X135.263 Y145.256 F10800.000
G1 F8640
G1 X133.371 Y142.787 E-0.76000
G1 E-0.04000 F2100.00000
G1 Z0.800 F10800.000
G1 X134.616 Y143.335
G1 Z0.200
G1 E0.80000 F2100.00000
M204 S500
G1 F1200
G1 X146.399 Y155.119 E0.42746
M204 S1000
G1 X145.963 Y155.119 F10800.000
M204 S500
G1 F1200
G1 X135.987 Y145.142 E0.36191
G1 X136.225 Y145.500 E0.01102
G1 X136.098 Y145.690 E0.00587
G1 X145.389 Y154.981 E0.33702
G1 X144.952 Y154.981 E0.01119
G1 X135.924 Y145.952 E0.32752
G1 X135.749 Y146.214 E0.00807
G1 X144.516 Y154.981 E0.31803
G1 X144.080 Y154.981 E0.01119
G1 X135.575 Y146.476 E0.30853
G1 X135.400 Y146.737 E0.00807
G1 X143.644 Y154.981 E0.29904
G1 X143.207 Y154.981 E0.01119
G1 X135.226 Y146.999 E0.28954
G1 X135.051 Y147.261 E0.00807
G1 X142.771 Y154.981 E0.28004
G1 X142.335 Y154.981 E0.01119
G1 X134.877 Y147.523 E0.27055
G1 X134.702 Y147.784 E0.00807
G1 X141.898 Y154.981 E0.26105
G1 X141.462 Y154.981 E0.01119
G1 X134.528 Y148.046 E0.25156
G1 X134.353 Y148.308 E0.00807
G1 X141.026 Y154.981 E0.24206
G1 X140.590 Y154.981 E0.01119
G1 X134.179 Y148.570 E0.23256
G1 X134.004 Y148.831 E0.00807
G1 X140.153 Y154.981 E0.22307
