; generated by Slic3r Prusa Edition 1.42.0-beta2+linux64 on 2019-05-08 at 15:20:47

; 

; external perimeters extrusion width = 0.45mm
; perimeters extrusion width = 0.45mm
; infill extrusion width = 0.45mm
; solid infill extrusion width = 0.45mm
; top infill extrusion width = 0.40mm
; first layer extrusion width = 0.42mm

M73 P0 R128
M73 Q0 S129
M201 X1000 Y1000 Z1000 E5000 ; sets maximum accelerations, mm/sec^2
M203 X200 Y200 Z12 E120 ; sets maximum feedrates, mm/sec
M204 P1250 R1250 T1250 ; sets acceleration (P, T) and retract acceleration (R), mm/sec^2
M205 X8.00 Y8.00 Z0.40 E1.50 ; sets the jerk limits, mm/sec
M205 S0 T0 ; sets the minimum extruding and travel feed rate, mm/sec
M107
M115 U3.6.0 ; tell printer latest fw version
M83  ; extruder relative mode
M104 S215 ; set extruder temp
M140 S60 ; set bed temp
M190 S60 ; wait for bed temp
M109 S215 ; wait for extruder temp
G28 W ; home all without mesh bed level
G80 ; mesh bed leveling
G1 Y-3.0 F1000.0 ; go outside print area
G92 E0.0
G1 X60.0 E9.0  F1000.0 ; intro line
M73 Q0 S129
M73 P0 R128
G1 X100.0 E12.5  F1000.0 ; intro line
G92 E0.0
M221 S95
M900 K30 ; Filament gcode
G21 ; set units to millimeters
G90 ; use absolute coordinates
M83 ; use relative distances for extrusion
;BEFORE_LAYER_CHANGE
G92 E0.0
;0.2


G1 E-0.80000 F2100.00000
G1 Z0.600 F10800.000
;AFTER_LAYER_CHANGE
;0.2
G1 X63.748 Y65.409
G1 Z0.200
G1 E0.80000 F2100.00000
M204 S1000
G1 F1200
G1 X64.389 Y65.311 E0.02032
G1 X178.004 Y65.311 E3.56232
G1 X178.514 Y65.373 E0.01612
G1 X178.996 Y65.551 E0.01612
G1 X179.423 Y65.838 E0.01612
G1 X179.772 Y66.215 E0.01612
G1 X186.851 Y76.832 E0.40008
G1 X187.098 Y77.376 E0.01873
G1 X187.188 Y77.967 E0.01873
G1 X187.173 Y132.263 E1.70241
G1 X187.054 Y132.755 E0.01589
G1 X186.827 Y133.205 E0.01578
G1 X179.807 Y143.735 E0.39683
G1 X179.230 Y144.310 E0.02552
G1 X178.650 Y144.590 E0.02021
G1 X178.009 Y144.689 E0.02032
G1 X64.383 Y144.689 E3.56265
G1 X63.859 Y144.622 E0.01658
G1 X63.366 Y144.432 E0.01658
G1 X62.933 Y144.129 E0.01658
G1 X62.585 Y143.731 E0.01658
G1 X62.304 Y143.147 E0.02032
G1 X62.206 Y142.510 E0.02021
G1 X62.206 Y67.482 E2.35244
G1 X62.273 Y66.961 E0.01646
G1 X62.464 Y66.468 E0.01658
G1 X62.768 Y66.035 E0.01658
G1 X63.164 Y65.690 E0.01646
G1 X63.694 Y65.435 E0.01844
G1 F8640
G1 X64.389 Y65.311 E-0.16296
G1 X66.974 Y65.311 E-0.59704
G1 E-0.04000 F2100.00000
G1 Z0.800 F10800.000
G1 X129.097 Y95.087
G1 Z0.200
G1 E0.80000 F2100.00000
G1 F1200
G1 X177.686 Y95.087 E1.52347
G1 X184.294 Y105.000 E0.37355
G1 X177.686 Y114.913 E0.37355
G1 X129.097 Y114.913 E1.52347
G1 X135.706 Y105.000 E0.37355
G1 X129.130 Y95.137 E0.37167
G1 F8640
G1 X132.422 Y95.134 E-0.76000
G1 E-0.04000 F2100.00000
G1 Z0.800 F10800.000
G1 X135.252 Y105.000
G1 Z0.200
G1 E0.80000 F2100.00000
G1 F1200
G1 X128.392 Y94.710 E0.38776
G1 X177.888 Y94.710 E1.55189
G1 X184.748 Y105.000 E0.38776
G1 X177.888 Y115.290 E0.38776
G1 X128.392 Y115.290 E1.55189
G1 X135.219 Y105.050 E0.38588
G1 X135.336 Y104.609 F10800.000
G1 F8640
G1 X133.406 Y102.303 E-0.76000
G1 E-0.04000 F2100.00000
G1 Z0.800 F10800.000
G1 X134.884 Y103.563
G1 Z0.200
G1 E0.80000 F2100.00000
G1 F1200
G1 X146.120 Y114.800 E0.50026
G1 X145.585 Y114.800 F10800.000
G1 F1200
G1 X135.941 Y105.156 E0.42934
G1 X135.727 Y105.478 E0.01216
G1 X144.880 Y114.630 E0.40748
G1 X144.344 Y114.630 E0.01686
G1 X135.513 Y105.799 E0.39318
G1 X135.299 Y106.120 E0.01216
G1 X143.809 Y114.630 E0.37888
G1 X143.273 Y114.630 E0.01686
G1 X135.085 Y106.441 E0.36458
G1 X134.870 Y106.763 E0.01215
G1 X142.738 Y114.630 E0.35027
G1 X142.203 Y114.630 E0.01686
G1 X134.656 Y107.084 E0.33597
G1 X134.442 Y107.405 E0.01216
G1 X141.667 Y114.630 E0.32167
G1 X141.132 Y114.630 E0.01686
G1 X134.228 Y107.726 E0.30737
G1 X134.014 Y108.048 E0.01216
G1 X140.596 Y114.630 E0.29306
G1 X140.061 Y114.630 E0.01686
G1 X133.800 Y108.369 E0.27876
G1 X133.585 Y108.690 E0.01216
G1 X139.525 Y114.630 E0.26446
G1 X138.990 Y114.630 E0.01686
G1 X133.371 Y109.011 E0.25015
G1 X133.157 Y109.333 E0.01216
G1 X138.455 Y114.630 E0.23585
G1 X137.919 Y114.630 E0.01686
G1 X132.943 Y109.654 E0.22155
G1 X132.729 Y109.975 E0.01216
G1 X137.384 Y114.630 E0.20725
G1 X136.848 Y114.630 E0.01686
G1 X132.515 Y110.296 E0.19294
G1 X132.300 Y110.618 E0.01216
G1 X136.313 Y114.630 E0.17864
G1 X135.777 Y114.630 E0.01686
G1 X132.086 Y110.939 E0.16434
G1 X131.872 Y111.260 E0.01216
G1 X135.242 Y114.630 E0.15003
G1 X134.707 Y114.630 E0.01686
G1 X131.658 Y111.581 E0.13573
G1 X131.444 Y111.903 E0.01216
G1 X134.171 Y114.630 E0.12143
G1 X133.636 Y114.630 E0.01686
G1 X131.229 Y112.224 E0.10713
G1 X131.015 Y112.545 E0.01216
G1 X133.100 Y114.630 E0.09282
G1 X132.565 Y114.630 E0.01686
G1 X130.801 Y112.866 E0.07852
G1 X130.587 Y113.188 E0.01216
G1 X132.029 Y114.630 E0.06422
G1 X131.494 Y114.630 E0.01686
G1 X130.373 Y113.509 E0.04991
G1 X130.159 Y113.830 E0.01216
G1 X130.959 Y114.630 E0.03561
G1 X130.423 Y114.630 E0.01686
G1 X129.944 Y114.152 E0.02131
G1 X129.730 Y114.473 E0.01216
G1 X130.057 Y114.800 E0.01456
G1 F8640
G1 X129.730 Y114.473 E-0.10680
G1 X129.944 Y114.152 E-0.08915
G1 X130.423 Y114.630 E-0.15629
G1 X130.959 Y114.630 E-0.12363
G1 X130.159 Y113.830 E-0.26120
G1 X130.214 Y113.748 E-0.02292
G1 E-0.04000 F2100.00000
G1 Z0.800 F10800.000
G1 X133.813 Y101.957
G1 Z0.200
G1 E0.80000 F2100.00000
G1 F1200
G1 X146.656 Y114.800 E0.57178
G1 X147.191 Y114.800 F10800.000
G1 F1200
G1 X132.742 Y100.351 E0.64329
G1 F8640
G1 X135.069 Y102.678 E-0.76000
G1 E-0.04000 F2100.00000
G1 Z0.800 F10800.000
G1 X131.671 Y98.744
G1 Z0.200
G1 E0.80000 F2100.00000
G1 F1200
G1 X147.727 Y114.800 E0.71481
G1 X148.262 Y114.800 F10800.000
G1 F1200
G1 X130.600 Y97.138 E0.78632
G1 F8640
G1 X132.928 Y99.465 E-0.76000
G1 E-0.04000 F2100.00000
G1 Z0.800 F10800.000
G1 X129.529 Y95.532
G1 Z0.200
G1 E0.80000 F2100.00000
G1 F1200
G1 X148.797 Y114.800 E0.85783
G1 F8640
G1 X146.470 Y112.472 E-0.76000
G1 E-0.04000 F2100.00000
G1 Z0.800 F10800.000
G1 X129.733 Y95.200
G1 Z0.200
G1 E0.80000 F2100.00000
G1 F1200
G1 X149.163 Y114.630 E0.86504
M73 Q0 S128
M73 P0 R127
G1 X149.699 Y114.630 E0.01686
G1 X130.438 Y95.370 E0.85749
G1 X130.974 Y95.370 E0.01686
G1 X150.234 Y114.630 E0.85749
G1 X150.769 Y114.630 E0.01686
G1 X131.509 Y95.370 E0.85749
G1 X132.045 Y95.370 E0.01686
G1 X151.305 Y114.630 E0.85749
G1 X151.840 Y114.630 E0.01686
G1 X132.580 Y95.370 E0.85749
G1 X133.115 Y95.370 E0.01686
G1 X152.376 Y114.630 E0.85749
G1 X152.911 Y114.630 E0.01686
G1 X133.651 Y95.370 E0.85749
G1 X134.186 Y95.370 E0.01686
G1 X153.447 Y114.630 E0.85749
G1 X153.982 Y114.630 E0.01686
G1 X134.722 Y95.370 E0.85749
G1 X135.257 Y95.370 E0.01686
G1 X154.517 Y114.630 E0.85749
G1 X155.053 Y114.630 E0.01686
G1 X135.793 Y95.370 E0.85749
G1 X136.328 Y95.370 E0.01686
G1 X155.588 Y114.630 E0.85749
G1 X156.124 Y114.630 E0.01686
G1 X136.863 Y95.370 E0.85749
G1 X137.399 Y95.370 E0.01686
G1 X156.659 Y114.630 E0.85749
G1 X157.195 Y114.630 E0.01686
G1 X137.934 Y95.370 E0.85749
G1 X138.470 Y95.370 E0.01686
G1 X157.730 Y114.630 E0.85749
G1 X158.265 Y114.630 E0.01686
G1 X139.005 Y95.370 E0.85749
G1 X139.541 Y95.370 E0.01686
G1 X158.801 Y114.630 E0.85749
G1 X159.336 Y114.630 E0.01686
G1 X140.076 Y95.370 E0.85749
G1 X140.611 Y95.370 E0.01686
G1 X159.872 Y114.630 E0.85749
G1 X160.407 Y114.630 E0.01686
G1 X141.147 Y95.370 E0.85749
G1 X141.682 Y95.370 E0.01686
G1 X160.943 Y114.630 E0.85749
G1 X161.478 Y114.630 E0.01686
G1 X142.218 Y95.370 E0.85749
G1 X142.753 Y95.370 E0.01686
G1 X162.013 Y114.630 E0.85749
G1 X162.549 Y114.630 E0.01686
G1 X143.289 Y95.370 E0.85749
G1 X143.824 Y95.370 E0.01686
G1 X163.084 Y114.630 E0.85749
G1 X163.620 Y114.630 E0.01686
G1 X144.359 Y95.370 E0.85749
G1 X144.895 Y95.370 E0.01686
G1 X164.155 Y114.630 E0.85749
G1 X164.691 Y114.630 E0.01686
G1 X145.430 Y95.370 E0.85749
G1 X145.966 Y95.370 E0.01686
G1 X165.226 Y114.630 E0.85749
G1 X165.761 Y114.630 E0.01686
G1 X146.501 Y95.370 E0.85749
G1 X147.037 Y95.370 E0.01686
G1 X166.297 Y114.630 E0.85749
G1 X166.832 Y114.630 E0.01686
G1 X147.572 Y95.370 E0.85749
G1 X148.107 Y95.370 E0.01686
G1 X167.368 Y114.630 E0.85749
G1 X167.903 Y114.630 E0.01686
G1 X148.643 Y95.370 E0.85749
G1 X149.178 Y95.370 E0.01686
G1 X168.439 Y114.630 E0.85749
G1 X168.974 Y114.630 E0.01686
G1 X149.714 Y95.370 E0.85749
G1 X150.249 Y95.370 E0.01686
G1 X169.509 Y114.630 E0.85749
G1 X170.045 Y114.630 E0.01686
G1 X150.785 Y95.370 E0.85749
G1 X151.320 Y95.370 E0.01686
G1 X170.580 Y114.630 E0.85749
G1 X171.116 Y114.630 E0.01686
G1 X151.856 Y95.370 E0.85749
G1 X152.391 Y95.370 E0.01686
G1 X171.651 Y114.630 E0.85749
G1 X172.187 Y114.630 E0.01686
G1 X152.926 Y95.370 E0.85749
M73 Q1 S127
M73 P1 R126
G1 X153.462 Y95.370 E0.01686
G1 X172.722 Y114.630 E0.85749
G1 X173.257 Y114.630 E0.01686
G1 X153.997 Y95.370 E0.85749
G1 X154.533 Y95.370 E0.01686
G1 X173.793 Y114.630 E0.85749
G1 X174.328 Y114.630 E0.01686
G1 X155.068 Y95.370 E0.85749
G1 X155.604 Y95.370 E0.01686
G1 X174.864 Y114.630 E0.85749
G1 X175.399 Y114.630 E0.01686
G1 X156.139 Y95.370 E0.85749
G1 X156.674 Y95.370 E0.01686
G1 X175.935 Y114.630 E0.85749
G1 X176.470 Y114.630 E0.01686
G1 X157.210 Y95.370 E0.85749
G1 X157.745 Y95.370 E0.01686
G1 X177.005 Y114.630 E0.85749
G1 X177.537 Y114.626 E0.01673
G1 X158.281 Y95.370 E0.85732
G1 X158.816 Y95.370 E0.01686
G1 X177.751 Y114.305 E0.84301
G1 X177.965 Y113.984 E0.01215
G1 X159.352 Y95.370 E0.82871
G1 X159.887 Y95.370 E0.01686
G1 X178.180 Y113.662 E0.81441
G1 X178.394 Y113.341 E0.01216
G1 X160.422 Y95.370 E0.80011
G1 X160.958 Y95.370 E0.01686
G1 X178.608 Y113.020 E0.78580
G1 X178.822 Y112.699 E0.01216
G1 X161.493 Y95.370 E0.77150
G1 X162.029 Y95.370 E0.01686
G1 X179.036 Y112.377 E0.75720
G1 X179.250 Y112.056 E0.01216
G1 X162.564 Y95.370 E0.74289
G1 X163.100 Y95.370 E0.01686
G1 X179.465 Y111.735 E0.72859
G1 X179.679 Y111.414 E0.01216
G1 X163.635 Y95.370 E0.71429
G1 X164.170 Y95.370 E0.01686
G1 X179.893 Y111.092 E0.69999
G1 X180.107 Y110.771 E0.01216
G1 X164.706 Y95.370 E0.68568
G1 X165.241 Y95.370 E0.01686
G1 X180.321 Y110.450 E0.67138
G1 X180.535 Y110.129 E0.01215
G1 X165.777 Y95.370 E0.65708
G1 X166.312 Y95.370 E0.01686
G1 X180.750 Y109.807 E0.64278
G1 X180.964 Y109.486 E0.01216
G1 X166.848 Y95.370 E0.62847
G1 X167.383 Y95.370 E0.01686
G1 X181.178 Y109.165 E0.61417
G1 X181.392 Y108.844 E0.01216
G1 X167.918 Y95.370 E0.59987
G1 X168.454 Y95.370 E0.01686
G1 X181.606 Y108.522 E0.58556
G1 X181.820 Y108.201 E0.01216
G1 X168.989 Y95.370 E0.57126
G1 X169.525 Y95.370 E0.01686
G1 X182.035 Y107.880 E0.55696
G1 X182.249 Y107.559 E0.01216
G1 X170.060 Y95.370 E0.54266
G1 X170.596 Y95.370 E0.01686
G1 X182.463 Y107.237 E0.52835
G1 X182.677 Y106.916 E0.01216
G1 X171.131 Y95.370 E0.51405
G1 X171.666 Y95.370 E0.01686
G1 X182.891 Y106.595 E0.49975
G1 X183.106 Y106.274 E0.01215
G1 X172.202 Y95.370 E0.48544
G1 X172.737 Y95.370 E0.01686
G1 X183.320 Y105.952 E0.47114
G1 X183.534 Y105.631 E0.01216
G1 X173.273 Y95.370 E0.45684
G1 X173.808 Y95.370 E0.01686
G1 X183.748 Y105.310 E0.44254
G1 X183.955 Y105.000 E0.01172
G1 X183.916 Y104.943 E0.00217
G1 X174.344 Y95.370 E0.42619
G1 X174.879 Y95.370 E0.01686
G1 X183.457 Y103.948 E0.38192
G1 F8640
G1 X181.130 Y101.621 E-0.76000
G1 E-0.04000 F2100.00000
G1 Z0.800 F10800.000
G1 X182.386 Y102.342
G1 Z0.200
G1 E0.80000 F2100.00000
G1 F1200
G1 X175.414 Y95.370 E0.31040
G1 X175.950 Y95.370 E0.01686
G1 X181.316 Y100.736 E0.23889
G1 F8640
G1 X178.988 Y98.408 E-0.76000
G1 E-0.04000 F2100.00000
G1 Z0.800 F10800.000
G1 X180.245 Y99.129
G1 Z0.200
G1 E0.80000 F2100.00000
G1 F1200
G1 X176.485 Y95.370 E0.16737
G1 X177.021 Y95.370 E0.01686
G1 X179.174 Y97.523 E0.09586
G1 F8640
G1 X177.021 Y95.370 E-0.70310
G1 X176.774 Y95.370 E-0.05690
G1 E-0.04000 F2100.00000
G1 Z0.800 F10800.000
G1 X177.686 Y122.087
G1 Z0.200
G1 E0.80000 F2100.00000
G1 F1200
G1 X184.294 Y132.000 E0.37355
G1 X177.686 Y141.913 E0.37355
G1 X129.097 Y141.913 E1.52347
G1 X135.706 Y132.000 E0.37355
G1 X129.097 Y122.087 E0.37355
G1 X177.626 Y122.087 E1.52159
G1 F8640
G1 X179.463 Y124.818 E-0.76000
G1 E-0.04000 F2100.00000
G1 Z0.800 F10800.000
G1 X135.252 Y132.000
G1 Z0.200
G1 E0.80000 F2100.00000
G1 F1200
G1 X128.392 Y121.710 E0.38776
G1 X177.888 Y121.710 E1.55189
G1 X184.748 Y132.000 E0.38776
M73 Q2 S126
M73 P2 R125
G1 X177.888 Y142.290 E0.38776
G1 X128.392 Y142.290 E1.55189
G1 X135.219 Y132.050 E0.38588
G1 X135.336 Y131.609 F10800.000
G1 F8640
G1 X133.406 Y129.303 E-0.76000
G1 E-0.04000 F2100.00000
G1 Z0.800 F10800.000
G1 X134.884 Y130.563
G1 Z0.200
G1 E0.80000 F2100.00000
G1 F1200
G1 X146.120 Y141.800 E0.50026
G1 X145.585 Y141.800 F10800.000
G1 F1200
G1 X135.941 Y132.156 E0.42934
G1 X135.727 Y132.478 E0.01216
G1 X144.880 Y141.630 E0.40748
G1 X144.344 Y141.630 E0.01686
G1 X135.513 Y132.799 E0.39318
G1 X135.299 Y133.120 E0.01216
G1 X143.809 Y141.630 E0.37888
G1 X143.273 Y141.630 E0.01686
G1 X135.085 Y133.441 E0.36458
G1 X134.870 Y133.763 E0.01215
G1 X142.738 Y141.630 E0.35027
G1 X142.203 Y141.630 E0.01686
G1 X134.656 Y134.084 E0.33597
G1 X134.442 Y134.405 E0.01216
G1 X141.667 Y141.630 E0.32167
G1 X141.132 Y141.630 E0.01686
G1 X134.228 Y134.726 E0.30737
G1 X134.014 Y135.048 E0.01216
G1 X140.596 Y141.630 E0.29306
G1 X140.061 Y141.630 E0.01686
G1 X133.800 Y135.369 E0.27876
G1 X133.585 Y135.690 E0.01216
G1 X139.525 Y141.630 E0.26446
G1 X138.990 Y141.630 E0.01686
G1 X133.371 Y136.011 E0.25015
G1 X133.157 Y136.333 E0.01216
G1 X138.455 Y141.630 E0.23585
G1 X137.919 Y141.630 E0.01686
G1 X132.943 Y136.654 E0.22155
G1 X132.729 Y136.975 E0.01216
G1 X137.384 Y141.630 E0.20725
G1 X136.848 Y141.630 E0.01686
G1 X132.515 Y137.296 E0.19294
G1 X132.300 Y137.618 E0.01216
G1 X136.313 Y141.630 E0.17864
G1 X135.777 Y141.630 E0.01686
G1 X132.086 Y137.939 E0.16434
G1 X131.872 Y138.260 E0.01216
G1 X135.242 Y141.630 E0.15003
G1 X134.707 Y141.630 E0.01686
G1 X131.658 Y138.581 E0.13573
G1 X131.444 Y138.903 E0.01216
G1 X134.171 Y141.630 E0.12143
G1 X133.636 Y141.630 E0.01686
G1 X131.229 Y139.224 E0.10713
G1 X131.015 Y139.545 E0.01216
G1 X133.100 Y141.630 E0.09282
G1 X132.565 Y141.630 E0.01686
G1 X130.801 Y139.866 E0.07852
G1 X130.587 Y140.188 E0.01216
G1 X132.029 Y141.630 E0.06422
G1 X131.494 Y141.630 E0.01686
G1 X130.373 Y140.509 E0.04991
G1 X130.159 Y140.830 E0.01216
G1 X130.959 Y141.630 E0.03561
G1 X130.423 Y141.630 E0.01686
G1 X129.944 Y141.152 E0.02131
G1 X129.730 Y141.473 E0.01216
G1 X130.057 Y141.800 E0.01456
G1 F8640
G1 X129.730 Y141.473 E-0.10680
G1 X129.944 Y141.152 E-0.08915
G1 X130.423 Y141.630 E-0.15629
G1 X130.959 Y141.630 E-0.12363
G1 X130.159 Y140.830 E-0.26120
G1 X130.214 Y140.748 E-0.02292
G1 E-0.04000 F2100.00000
G1 Z0.800 F10800.000
G1 X133.813 Y128.957
G1 Z0.200
G1 E0.80000 F2100.00000
G1 F1200
G1 X146.656 Y141.800 E0.57178
G1 X147.191 Y141.800 F10800.000
G1 F1200
G1 X132.742 Y127.351 E0.64329
G1 F8640
G1 X135.069 Y129.678 E-0.76000
G1 E-0.04000 F2100.00000
G1 Z0.800 F10800.000
G1 X131.671 Y125.744
G1 Z0.200
G1 E0.80000 F2100.00000
G1 F1200
G1 X147.727 Y141.800 E0.71481
G1 X148.262 Y141.800 F10800.000
G1 F1200
G1 X130.600 Y124.138 E0.78632
G1 F8640
G1 X132.928 Y126.465 E-0.76000
G1 E-0.04000 F2100.00000
G1 Z0.800 F10800.000
G1 X129.529 Y122.532
G1 Z0.200
G1 E0.80000 F2100.00000
G1 F1200
G1 X148.797 Y141.800 E0.85783
G1 F8640
G1 X146.470 Y139.472 E-0.76000
G1 E-0.04000 F2100.00000
G1 Z0.800 F10800.000
G1 X129.733 Y122.200
G1 Z0.200
G1 E0.80000 F2100.00000
G1 F1200
G1 X149.163 Y141.630 E0.86504
G1 X149.699 Y141.630 E0.01686
G1 X130.438 Y122.370 E0.85749
G1 X130.974 Y122.370 E0.01686
G1 X150.234 Y141.630 E0.85749
G1 X150.769 Y141.630 E0.01686
G1 X131.509 Y122.370 E0.85749
G1 X132.045 Y122.370 E0.01686
G1 X151.305 Y141.630 E0.85749
G1 X151.840 Y141.630 E0.01686
G1 X132.580 Y122.370 E0.85749
G1 X133.115 Y122.370 E0.01686
G1 X152.376 Y141.630 E0.85749
G1 X152.911 Y141.630 E0.01686
G1 X133.651 Y122.370 E0.85749
G1 X134.186 Y122.370 E0.01686
G1 X153.447 Y141.630 E0.85749
G1 X153.982 Y141.630 E0.01686
G1 X134.722 Y122.370 E0.85749
G1 X135.257 Y122.370 E0.01686
G1 X154.517 Y141.630 E0.85749
G1 X155.053 Y141.630 E0.01686
G1 X135.793 Y122.370 E0.85749
G1 X136.328 Y122.370 E0.01686
G1 X155.588 Y141.630 E0.85749
G1 X156.124 Y141.630 E0.01686
