; generated by Slic3r Prusa Edition 1.42.0-beta2+linux64 on 2019-05-08 at 15:21:23

; 

; external perimeters extrusion width = 0.25mm
; perimeters extrusion width = 0.25mm
; infill extrusion width = 0.25mm
; solid infill extrusion width = 0.25mm
; top infill extrusion width = 0.25mm
; first layer extrusion width = 0.35mm

M73 P0 R287
M73 Q0 S288
M201 X1000 Y1000 Z1000 E5000 ; sets maximum accelerations, mm/sec^2
M203 X200 Y200 Z12 E120 ; sets maximum feedrates, mm/sec
M204 P1250 R1250 T1250 ; sets acceleration (P, T) and retract acceleration (R), mm/sec^2
M205 X8.00 Y8.00 Z0.40 E1.50 ; sets the jerk limits, mm/sec
M205 S0 T0 ; sets the minimum extruding and travel feed rate, mm/sec
M107
M115 U3.6.0 ; tell printer latest fw version
M83  ; extruder relative mode
M104 S215 ; set extruder temp
M140 S60 ; set bed temp
M190 S60 ; wait for bed temp
M109 S215 ; wait for extruder temp
G28 W ; home all without mesh bed level
G80 ; mesh bed leveling
G1 Y-3.0 F1000.0 ; go outside print area
G92 E0.0
G1 X60.0 E8.0 F700.0 ; intro line
M73 Q0 S288
M73 P0 R287
G1 X100.0 E12.5 F700.0 ; intro line
G92 E0.0
M221 S95
M900 K30 ; Filament gcode
G21 ; set units to millimeters
G90 ; use absolute coordinates
M83 ; use relative distances for extrusion
;BEFORE_LAYER_CHANGE
G92 E0.0
;0.2


G1 E-0.80000 F2100.00000
G1 Z0.600 F10800.000
;AFTER_LAYER_CHANGE
;0.2
G1 X63.759 Y65.442
G1 Z0.200
G1 E0.80000 F2100.00000
M204 S500
G1 F1200
G1 X64.387 Y65.346 E0.01623
G1 X178.004 Y65.346 E2.90106
G1 X178.506 Y65.407 E0.01293
G1 X178.981 Y65.583 E0.01293
G1 X179.399 Y65.863 E0.01284
G1 X179.743 Y66.235 E0.01293
G1 X186.821 Y76.851 E0.32581
G1 X187.065 Y77.388 E0.01504
G1 X187.153 Y77.966 E0.01495
G1 X187.138 Y132.257 E1.38624
G1 X187.022 Y132.742 E0.01275
G1 X186.798 Y133.185 E0.01265
G1 X179.778 Y143.716 E0.32317
G1 X179.211 Y144.281 E0.02043
G1 X178.635 Y144.558 E0.01632
G1 X178.006 Y144.654 E0.01623
G1 X64.384 Y144.654 E2.90122
G1 X63.867 Y144.588 E0.01330
G1 X63.381 Y144.400 E0.01330
G1 X62.955 Y144.101 E0.01330
G1 X62.612 Y143.709 E0.01330
G1 X62.338 Y143.139 E0.01614
G1 X62.241 Y142.511 E0.01623
G1 X62.241 Y67.485 E1.91569
G1 X62.307 Y66.969 E0.01330
G1 X62.496 Y66.483 E0.01330
G1 X62.795 Y66.057 E0.01330
G1 X63.186 Y65.718 E0.01321
G1 X63.725 Y65.459 E0.01528
M204 S1000
G1 F8640
G1 X64.387 Y65.346 E-0.15510
G1 X67.007 Y65.346 E-0.60490
G1 E-0.04000 F2100.00000
G1 Z0.800 F10800.000
G1 X129.475 Y95.289
G1 Z0.200
G1 E0.80000 F2100.00000
M204 S500
G1 F1200
G1 X177.578 Y95.289 E1.22825
G1 X184.052 Y105.000 E0.29800
G1 X177.578 Y114.711 E0.29800
G1 X129.475 Y114.711 E1.22825
G1 X135.948 Y105.000 E0.29800
G1 X129.495 Y95.320 E0.29705
M204 S1000
G1 F8640
G1 X132.787 Y95.318 E-0.76000
G1 E-0.04000 F2100.00000
G1 Z0.800 F10800.000
G1 X135.579 Y105.000
G1 Z0.200
G1 E0.80000 F2100.00000
M204 S500
G1 F1200
G1 X128.901 Y94.982 E0.30743
G1 X177.742 Y94.982 E1.24710
G1 X184.421 Y105.000 E0.30743
G1 X177.742 Y115.018 E0.30743
G1 X128.901 Y115.018 E1.24710
G1 X135.559 Y105.031 E0.30647
M204 S1000
G1 X135.210 Y105.000 F10800.000
M204 S500
G1 F1200
G1 X128.327 Y94.675 E0.31685
G1 X177.906 Y94.675 E1.26595
G1 X184.790 Y105.000 E0.31685
G1 X177.906 Y115.325 E0.31685
G1 X128.327 Y115.325 E1.26595
G1 X135.190 Y105.031 E0.31589
M204 S1000
G1 X135.263 Y104.756 F10800.000
G1 F8640
G1 X133.371 Y102.287 E-0.76000
G1 E-0.04000 F2100.00000
G1 Z0.800 F10800.000
G1 X134.616 Y102.835
G1 Z0.200
G1 E0.80000 F2100.00000
M204 S500
G1 F1200
G1 X146.399 Y114.619 E0.42746
M204 S1000
G1 X145.963 Y114.619 F10800.000
M204 S500
G1 F1200
G1 X135.987 Y104.642 E0.36191
G1 X136.225 Y105.000 E0.01102
G1 X136.098 Y105.190 E0.00587
G1 X145.389 Y114.481 E0.33702
G1 X144.952 Y114.481 E0.01119
G1 X135.924 Y105.452 E0.32752
G1 X135.749 Y105.714 E0.00807
G1 X144.516 Y114.481 E0.31803
G1 X144.080 Y114.481 E0.01119
G1 X135.575 Y105.976 E0.30853
G1 X135.400 Y106.237 E0.00807
G1 X143.644 Y114.481 E0.29904
G1 X143.207 Y114.481 E0.01119
G1 X135.226 Y106.499 E0.28954
G1 X135.051 Y106.761 E0.00807
G1 X142.771 Y114.481 E0.28004
G1 X142.335 Y114.481 E0.01119
G1 X134.877 Y107.023 E0.27055
G1 X134.702 Y107.284 E0.00807
G1 X141.898 Y114.481 E0.26105
G1 X141.462 Y114.481 E0.01119
G1 X134.528 Y107.546 E0.25156
G1 X134.353 Y107.808 E0.00807
G1 X141.026 Y114.481 E0.24206
G1 X140.590 Y114.481 E0.01119
G1 X134.179 Y108.070 E0.23256
G1 X134.004 Y108.331 E0.00807
G1 X140.153 Y114.481 E0.22307
G1 X139.717 Y114.481 E0.01119
G1 X133.830 Y108.593 E0.21357
G1 X133.655 Y108.855 E0.00807
G1 X139.281 Y114.481 E0.20408
G1 X138.845 Y114.481 E0.01119
G1 X133.481 Y109.117 E0.19458
G1 X133.306 Y109.379 E0.00807
G1 X138.408 Y114.481 E0.18508
G1 X137.972 Y114.481 E0.01119
G1 X133.132 Y109.640 E0.17559
G1 X132.957 Y109.902 E0.00807
G1 X137.536 Y114.481 E0.16609
G1 X137.099 Y114.481 E0.01119
G1 X132.783 Y110.164 E0.15660
M73 Q0 S287
G1 X132.608 Y110.426 E0.00807
G1 X136.663 Y114.481 E0.14710
M73 P0 R286
G1 X136.227 Y114.481 E0.01119
G1 X132.434 Y110.687 E0.13760
G1 X132.259 Y110.949 E0.00807
G1 X135.791 Y114.481 E0.12811
G1 X135.354 Y114.481 E0.01119
G1 X132.085 Y111.211 E0.11861
G1 X131.910 Y111.473 E0.00807
G1 X134.918 Y114.481 E0.10912
G1 X134.482 Y114.481 E0.01119
G1 X131.736 Y111.734 E0.09962
G1 X131.561 Y111.996 E0.00807
G1 X134.045 Y114.481 E0.09012
G1 X133.609 Y114.481 E0.01119
G1 X131.387 Y112.258 E0.08063
G1 X131.212 Y112.520 E0.00807
G1 X133.173 Y114.481 E0.07113
G1 X132.737 Y114.481 E0.01119
G1 X131.038 Y112.781 E0.06164
G1 X130.863 Y113.043 E0.00807
G1 X132.300 Y114.481 E0.05214
G1 X131.864 Y114.481 E0.01119
G1 X130.689 Y113.305 E0.04264
G1 X130.514 Y113.567 E0.00807
G1 X131.428 Y114.481 E0.03315
G1 X130.992 Y114.481 E0.01119
G1 X130.340 Y113.829 E0.02365
G1 X130.165 Y114.090 E0.00807
G1 X130.555 Y114.481 E0.01416
G1 X130.119 Y114.481 E0.01119
G1 X129.891 Y114.252 E0.00828
M204 S1000
G1 F8640
G1 X130.119 Y114.481 E-0.07449
G1 X130.555 Y114.481 E-0.10074
G1 X130.165 Y114.090 E-0.12743
G1 X130.340 Y113.829 E-0.07264
G1 X130.992 Y114.481 E-0.21291
G1 X131.428 Y114.481 E-0.10074
G1 X131.210 Y114.263 E-0.07104
G1 E-0.04000 F2100.00000
G1 Z0.800 F10800.000
G1 X133.744 Y101.527
G1 Z0.200
G1 E0.80000 F2100.00000
M204 S500
G1 F1200
G1 X146.836 Y114.619 E0.47494
M204 S1000
G1 X147.272 Y114.619 F10800.000
M204 S500
G1 F1200
G1 X132.871 Y100.218 E0.52242
M204 S1000
G1 F8640
G1 X135.198 Y102.545 E-0.76000
G1 E-0.04000 F2100.00000
G1 Z0.800 F10800.000
G1 X131.998 Y98.909
G1 Z0.200
G1 E0.80000 F2100.00000
M204 S500
G1 F1200
G1 X147.708 Y114.619 E0.56990
M204 S1000
G1 X148.145 Y114.619 F10800.000
M204 S500
G1 F1200
G1 X131.126 Y97.600 E0.61738
M204 S1000
G1 F8640
G1 X133.453 Y99.927 E-0.76000
G1 E-0.04000 F2100.00000
G1 Z0.800 F10800.000
G1 X130.253 Y96.291
G1 Z0.200
G1 E0.80000 F2100.00000
M204 S500
G1 F1200
G1 X148.581 Y114.619 E0.66486
M204 S1000
G1 F8640
G1 X146.253 Y112.291 E-0.76000
G1 E-0.04000 F2100.00000
G1 Z0.800 F10800.000
G1 X129.780 Y95.381
G1 Z0.200
G1 E0.80000 F2100.00000
M204 S500
G1 F1200
G1 X148.879 Y114.481 E0.69286
G1 X149.315 Y114.481 E0.01119
G1 X130.354 Y95.519 E0.68784
G1 X130.790 Y95.519 E0.01119
G1 X149.751 Y114.481 E0.68784
G1 X150.188 Y114.481 E0.01119
G1 X131.227 Y95.519 E0.68784
G1 X131.663 Y95.519 E0.01119
G1 X150.624 Y114.481 E0.68784
G1 X151.060 Y114.481 E0.01119
G1 X132.099 Y95.519 E0.68784
G1 X132.535 Y95.519 E0.01119
G1 X151.497 Y114.481 E0.68784
G1 X151.933 Y114.481 E0.01119
G1 X132.972 Y95.519 E0.68784
G1 X133.408 Y95.519 E0.01119
G1 X152.369 Y114.481 E0.68784
G1 X152.805 Y114.481 E0.01119
G1 X133.844 Y95.519 E0.68784
G1 X134.281 Y95.519 E0.01119
G1 X153.242 Y114.481 E0.68784
G1 X153.678 Y114.481 E0.01119
G1 X134.717 Y95.519 E0.68784
G1 X135.153 Y95.519 E0.01119
G1 X154.114 Y114.481 E0.68784
G1 X154.550 Y114.481 E0.01119
G1 X135.589 Y95.519 E0.68784
G1 X136.026 Y95.519 E0.01119
G1 X154.987 Y114.481 E0.68784
G1 X155.423 Y114.481 E0.01119
G1 X136.462 Y95.519 E0.68784
G1 X136.898 Y95.519 E0.01119
G1 X155.859 Y114.481 E0.68784
G1 X156.296 Y114.481 E0.01119
G1 X137.334 Y95.519 E0.68784
G1 X137.771 Y95.519 E0.01119
G1 X156.732 Y114.481 E0.68784
G1 X157.168 Y114.481 E0.01119
G1 X138.207 Y95.519 E0.68784
G1 X138.643 Y95.519 E0.01119
G1 X157.604 Y114.481 E0.68784
G1 X158.041 Y114.481 E0.01119
G1 X139.080 Y95.519 E0.68784
G1 X139.516 Y95.519 E0.01119
G1 X158.477 Y114.481 E0.68784
G1 X158.913 Y114.481 E0.01119
G1 X139.952 Y95.519 E0.68784
G1 X140.388 Y95.519 E0.01119
G1 X159.350 Y114.481 E0.68784
G1 X159.786 Y114.481 E0.01119
G1 X140.825 Y95.519 E0.68784
G1 X141.261 Y95.519 E0.01119
G1 X160.222 Y114.481 E0.68784
G1 X160.658 Y114.481 E0.01119
G1 X141.697 Y95.519 E0.68784
G1 X142.134 Y95.519 E0.01119
G1 X161.095 Y114.481 E0.68784
G1 X161.531 Y114.481 E0.01119
G1 X142.570 Y95.519 E0.68784
G1 X143.006 Y95.519 E0.01119
G1 X161.967 Y114.481 E0.68784
G1 X162.403 Y114.481 E0.01119
G1 X143.442 Y95.519 E0.68784
G1 X143.879 Y95.519 E0.01119
G1 X162.840 Y114.481 E0.68784
G1 X163.276 Y114.481 E0.01119
G1 X144.315 Y95.519 E0.68784
G1 X144.751 Y95.519 E0.01119
G1 X163.712 Y114.481 E0.68784
G1 X164.149 Y114.481 E0.01119
G1 X145.187 Y95.519 E0.68784
M73 Q0 S286
M73 P0 R285
G1 X145.624 Y95.519 E0.01119
G1 X164.585 Y114.481 E0.68784
G1 X165.021 Y114.481 E0.01119
G1 X146.060 Y95.519 E0.68784
G1 X146.496 Y95.519 E0.01119
G1 X165.457 Y114.481 E0.68784
G1 X165.894 Y114.481 E0.01119
G1 X146.933 Y95.519 E0.68784
G1 X147.369 Y95.519 E0.01119
G1 X166.330 Y114.481 E0.68784
G1 X166.766 Y114.481 E0.01119
G1 X147.805 Y95.519 E0.68784
G1 X148.241 Y95.519 E0.01119
G1 X167.203 Y114.481 E0.68784
G1 X167.639 Y114.481 E0.01119
G1 X148.678 Y95.519 E0.68784
G1 X149.114 Y95.519 E0.01119
G1 X168.075 Y114.481 E0.68784
G1 X168.511 Y114.481 E0.01119
G1 X149.550 Y95.519 E0.68784
G1 X149.987 Y95.519 E0.01119
G1 X168.948 Y114.481 E0.68784
G1 X169.384 Y114.481 E0.01119
G1 X150.423 Y95.519 E0.68784
G1 X150.859 Y95.519 E0.01119
G1 X169.820 Y114.481 E0.68784
G1 X170.256 Y114.481 E0.01119
G1 X151.295 Y95.519 E0.68784
G1 X151.732 Y95.519 E0.01119
G1 X170.693 Y114.481 E0.68784
G1 X171.129 Y114.481 E0.01119
G1 X152.168 Y95.519 E0.68784
G1 X152.604 Y95.519 E0.01119
G1 X171.565 Y114.481 E0.68784
G1 X172.002 Y114.481 E0.01119
G1 X153.040 Y95.519 E0.68784
G1 X153.477 Y95.519 E0.01119
G1 X172.438 Y114.481 E0.68784
G1 X172.874 Y114.481 E0.01119
G1 X153.913 Y95.519 E0.68784
G1 X154.349 Y95.519 E0.01119
G1 X173.310 Y114.481 E0.68784
G1 X173.747 Y114.481 E0.01119
G1 X154.786 Y95.519 E0.68784
G1 X155.222 Y95.519 E0.01119
G1 X174.183 Y114.481 E0.68784
G1 X174.619 Y114.481 E0.01119
G1 X155.658 Y95.519 E0.68784
G1 X156.094 Y95.519 E0.01119
G1 X175.055 Y114.481 E0.68784
G1 X175.492 Y114.481 E0.01119
G1 X156.531 Y95.519 E0.68784
G1 X156.967 Y95.519 E0.01119
G1 X175.928 Y114.481 E0.68784
G1 X176.364 Y114.481 E0.01119
G1 X157.403 Y95.519 E0.68784
G1 X157.839 Y95.519 E0.01119
G1 X176.801 Y114.481 E0.68784
G1 X177.237 Y114.481 E0.01119
G1 X158.276 Y95.519 E0.68784
G1 X158.712 Y95.519 E0.01119
G1 X177.542 Y114.349 E0.68308
G1 X177.716 Y114.088 E0.00807
G1 X159.148 Y95.519 E0.67359
G1 X159.585 Y95.519 E0.01119
G1 X177.891 Y113.826 E0.66409
G1 X178.065 Y113.564 E0.00807
G1 X160.021 Y95.519 E0.65459
G1 X160.457 Y95.519 E0.01119
G1 X178.240 Y113.302 E0.64510
G1 X178.414 Y113.040 E0.00807
G1 X160.893 Y95.519 E0.63560
G1 X161.330 Y95.519 E0.01119
G1 X178.589 Y112.779 E0.62611
G1 X178.763 Y112.517 E0.00807
G1 X161.766 Y95.519 E0.61661
G1 X162.202 Y95.519 E0.01119
G1 X178.938 Y112.255 E0.60711
G1 X179.112 Y111.993 E0.00807
G1 X162.639 Y95.519 E0.59762
G1 X163.075 Y95.519 E0.01119
G1 X179.287 Y111.732 E0.58812
G1 X179.462 Y111.470 E0.00807
G1 X163.511 Y95.519 E0.57863
G1 X163.947 Y95.519 E0.01119
G1 X179.636 Y111.208 E0.56913
G1 X179.811 Y110.946 E0.00807
G1 X164.384 Y95.519 E0.55963
G1 X164.820 Y95.519 E0.01119
G1 X179.985 Y110.685 E0.55014
M73 Q1 S285
M73 P1 R284
G1 X180.160 Y110.423 E0.00807
G1 X165.256 Y95.519 E0.54064
G1 X165.692 Y95.519 E0.01119
G1 X180.334 Y110.161 E0.53115
G1 X180.509 Y109.899 E0.00807
G1 X166.129 Y95.519 E0.52165
G1 X166.565 Y95.519 E0.01119
G1 X180.683 Y109.638 E0.51216
G1 X180.858 Y109.376 E0.00807
G1 X167.001 Y95.519 E0.50266
G1 X167.438 Y95.519 E0.01119
G1 X181.032 Y109.114 E0.49316
G1 X181.207 Y108.852 E0.00807
G1 X167.874 Y95.519 E0.48367
G1 X168.310 Y95.519 E0.01119
G1 X181.381 Y108.590 E0.47417
G1 X181.556 Y108.329 E0.00807
G1 X168.746 Y95.519 E0.46468
G1 X169.183 Y95.519 E0.01119
G1 X181.730 Y108.067 E0.45518
G1 X181.905 Y107.805 E0.00807
G1 X169.619 Y95.519 E0.44568
G1 X170.055 Y95.519 E0.01119
G1 X182.079 Y107.543 E0.43619
G1 X182.254 Y107.282 E0.00807
G1 X170.491 Y95.519 E0.42669
G1 X170.928 Y95.519 E0.01119
G1 X182.428 Y107.020 E0.41720
G1 X182.603 Y106.758 E0.00807
G1 X171.364 Y95.519 E0.40770
G1 X171.800 Y95.519 E0.01119
G1 X182.777 Y106.496 E0.39820
G1 X182.952 Y106.235 E0.00807
G1 X172.237 Y95.519 E0.38871
G1 X172.673 Y95.519 E0.01119
G1 X183.126 Y105.973 E0.37921
G1 X183.301 Y105.711 E0.00807
G1 X173.109 Y95.519 E0.36972
G1 X173.545 Y95.519 E0.01119
G1 X183.475 Y105.449 E0.36022
G1 X183.650 Y105.188 E0.00807
G1 X173.982 Y95.519 E0.35072
G1 X174.418 Y95.519 E0.01119
G1 X183.924 Y105.025 E0.34484
M204 S1000
G1 F8640
G1 X181.597 Y102.698 E-0.76000
G1 E-0.04000 F2100.00000
G1 Z0.800 F10800.000
G1 X183.153 Y103.818
G1 Z0.200
G1 E0.80000 F2100.00000
M204 S500
G1 F1200
G1 X174.854 Y95.519 E0.30105
G1 X175.291 Y95.519 E0.01119
G1 X182.280 Y102.509 E0.25357
M204 S1000
G1 F8640
G1 X179.953 Y100.182 E-0.76000
G1 E-0.04000 F2100.00000
G1 Z0.800 F10800.000
G1 X181.408 Y101.200
G1 Z0.200
G1 E0.80000 F2100.00000
M204 S500
G1 F1200
G1 X175.727 Y95.519 E0.20609
G1 X176.163 Y95.519 E0.01119
G1 X180.535 Y99.892 E0.15861
M204 S1000
G1 F8640
G1 X178.208 Y97.564 E-0.76000
G1 E-0.04000 F2100.00000
G1 Z0.800 F10800.000
G1 X179.663 Y98.583
G1 Z0.200
G1 E0.80000 F2100.00000
M204 S500
G1 F1200
G1 X176.599 Y95.519 E0.11113
G1 X177.036 Y95.519 E0.01119
G1 X178.790 Y97.274 E0.06365
M204 S1000
G1 F8640
G1 X177.036 Y95.519 E-0.57294
G1 X176.599 Y95.519 E-0.10074
G1 X176.864 Y95.784 E-0.08632
G1 E-0.04000 F2100.00000
G1 Z0.800 F10800.000
G1 X177.578 Y122.289
G1 Z0.200
G1 E0.80000 F2100.00000
M204 S500
G1 F1200
G1 X184.052 Y132.000 E0.29800
G1 X177.578 Y141.711 E0.29800
G1 X129.475 Y141.711 E1.22825
G1 X135.948 Y132.000 E0.29800
G1 X129.475 Y122.289 E0.29800
G1 X177.540 Y122.289 E1.22730
M204 S1000
G1 F8640
G1 X179.373 Y125.023 E-0.76000
G1 E-0.04000 F2100.00000
G1 Z0.800 F10800.000
G1 X135.579 Y132.000
G1 Z0.200
G1 E0.80000 F2100.00000
M204 S500
G1 F1200
G1 X128.901 Y121.982 E0.30743
G1 X177.742 Y121.982 E1.24710
G1 X184.421 Y132.000 E0.30743
G1 X177.742 Y142.018 E0.30743
G1 X128.901 Y142.018 E1.24710
G1 X135.559 Y132.031 E0.30647
M204 S1000
G1 X135.210 Y132.000 F10800.000
M204 S500
G1 F1200
G1 X128.327 Y121.675 E0.31685
G1 X177.906 Y121.675 E1.26595
G1 X184.790 Y132.000 E0.31685
G1 X177.906 Y142.325 E0.31685
G1 X128.327 Y142.325 E1.26595
G1 X135.190 Y132.031 E0.31589
M204 S1000
G1 X135.263 Y131.756 F10800.000
G1 F8640
G1 X133.371 Y129.287 E-0.76000
G1 E-0.04000 F2100.00000
G1 Z0.800 F10800.000
G1 X134.616 Y129.835
G1 Z0.200
G1 E0.80000 F2100.00000
M204 S500
G1 F1200
G1 X146.399 Y141.619 E0.42746
M204 S1000
G1 X145.963 Y141.619 F10800.000
M204 S500
G1 F1200
G1 X135.987 Y131.642 E0.36191
G1 X136.225 Y132.000 E0.01102
G1 X136.098 Y132.190 E0.00587
G1 X145.389 Y141.481 E0.33702
G1 X144.952 Y141.481 E0.01119
G1 X135.924 Y132.452 E0.32752
G1 X135.749 Y132.714 E0.00807
G1 X144.516 Y141.481 E0.31803
G1 X144.080 Y141.481 E0.01119
G1 X135.575 Y132.976 E0.30853
G1 X135.400 Y133.237 E0.00807
G1 X143.644 Y141.481 E0.29904
G1 X143.207 Y141.481 E0.01119
G1 X135.226 Y133.499 E0.28954
G1 X135.051 Y133.761 E0.00807
G1 X142.771 Y141.481 E0.28004
G1 X142.335 Y141.481 E0.01119
G1 X134.877 Y134.023 E0.27055
G1 X134.702 Y134.284 E0.00807
G1 X141.898 Y141.481 E0.26105
G1 X141.462 Y141.481 E0.01119
G1 X134.528 Y134.546 E0.25156
G1 X134.353 Y134.808 E0.00807
G1 X141.026 Y141.481 E0.24206
G1 X140.590 Y141.481 E0.01119
G1 X134.179 Y135.070 E0.23256
G1 X134.004 Y135.331 E0.00807
G1 X140.153 Y141.481 E0.22307
G1 X139.717 Y141.481 E0.01119
G1 X133.830 Y135.593 E0.21357
